public/images/icon-github.svg

<svg width="131" height="130" viewBox="0 0 131 130" fill="none" xmlns="http://www.w3.org/2000/svg">
<path d="M31.6756 102.275C29.912 101.099 28.3954 99.5999 26.62 97.4776C25.6985 96.3499 24.7854 95.2152 23.8806 94.0741C21.1588 90.6937 19.4423 89.1361 17.667 88.495C16.1991 87.9681 15.0007 86.8798 14.3354 85.4693C13.67 84.0588 13.5923 82.4415 14.1193 80.9737C14.6463 79.5056 15.7348 78.3071 17.1453 77.6421C18.5559 76.9766 20.173 76.8991 21.6409 77.426C26.0616 79.0132 29.0537 81.7468 33.0864 86.7612C32.5338 86.0734 35.0851 89.271 35.6319 89.9295C36.7488 91.264 37.5718 92.0753 38.2184 92.5043C39.4176 93.3099 41.6691 93.6565 44.9788 93.3274C45.1141 91.0816 45.5313 88.9009 46.1663 86.8904C28.7187 82.6227 18.8427 71.3712 18.8427 49.2911C18.8427 42.0018 21.0178 35.4413 25.0622 29.939C23.7807 24.6835 23.9747 18.3288 26.8375 11.1746C27.1625 10.3654 27.6633 9.63853 28.3039 9.04678C28.9444 8.45504 29.7086 8.0132 30.541 7.75332C31.0172 7.61223 31.2876 7.54756 31.7638 7.47703C36.4843 6.75399 43.1507 8.47641 51.8391 13.9199C57.0168 12.7094 62.3171 12.1019 67.6345 12.1093C72.9958 12.1093 78.3217 12.7207 83.4129 13.9199C92.0953 8.43525 98.7736 6.71283 103.529 7.47703C104.029 7.55345 104.452 7.65338 104.81 7.77095C105.627 8.04005 106.374 8.48482 107 9.07392C107.625 9.66298 108.114 10.3821 108.432 11.1805C111.295 18.3288 111.489 24.6835 110.207 29.9331C114.269 35.4354 116.427 41.9547 116.427 49.2911C116.427 71.3769 106.586 82.5931 89.1386 86.8668C89.8731 89.3063 90.2553 92.0343 90.2553 94.9792C90.2558 100.301 90.2326 105.623 90.1847 110.945C91.505 111.233 92.6855 111.967 93.5281 113.024C94.3707 114.08 94.8232 115.395 94.8102 116.746C94.7972 118.097 94.3191 119.403 93.4562 120.443C92.5933 121.483 91.3985 122.193 90.0729 122.456C83.3775 123.796 78.416 119.328 78.416 113.491L78.4278 110.869L78.457 106.725C78.4867 102.563 78.4981 98.8593 78.4981 94.9792C78.4981 90.8818 77.4223 88.207 76 86.9846C72.1143 83.6339 74.0833 77.2553 79.1745 76.6854C96.616 74.7276 104.67 67.9733 104.67 49.2911C104.67 43.6772 102.835 39.039 99.3025 35.1591C98.5583 34.3434 98.0586 33.3346 97.8612 32.2481C97.6633 31.1617 97.7758 30.0415 98.1853 29.016C99.1616 26.5823 99.5788 23.3903 98.75 19.5281L98.6911 19.5457C95.8047 20.3628 92.1659 22.1323 87.7687 25.1244C87.0598 25.6057 86.2542 25.926 85.408 26.0631C84.5622 26.2002 83.6964 26.1507 82.8717 25.9181C77.9098 24.5442 72.7833 23.8539 67.6345 23.8665C62.4029 23.8665 57.2179 24.566 52.3973 25.9239C51.5759 26.1547 50.7138 26.2038 49.8713 26.0678C49.0287 25.9317 48.2255 25.6138 47.5183 25.1362C43.0974 22.1558 39.4412 20.3922 36.5372 19.5692C35.6907 23.4079 36.108 26.5882 37.078 29.016C37.4884 30.041 37.6018 31.1608 37.4053 32.2473C37.2088 33.3337 36.7103 34.3428 35.9669 35.1591C32.4574 39.0037 30.5998 43.73 30.5998 49.2911C30.5998 67.938 38.6593 74.7333 56.0069 76.6854C61.0919 77.2553 63.0671 83.6042 59.2048 86.961C58.0763 87.9486 56.6828 91.264 56.6828 94.9792V113.497C56.6828 119.293 51.7745 123.637 45.1612 122.479C43.8194 122.243 42.601 121.549 41.7146 120.515C40.8277 119.481 40.328 118.171 40.3003 116.809C40.2725 115.447 40.7186 114.118 41.5622 113.048C42.406 111.979 43.5947 111.235 44.926 110.945V105.126C39.5764 105.484 35.1557 104.608 31.6756 102.275Z" fill="black"/>
</svg>

<svg width="131" height="130" fill="none" xmlns="http://www.w3.org/2000/svg"><path d="M31.676 102.275c-1.764-1.176-3.28-2.675-5.056-4.797a297.168 297.168 0 0 1-2.74-3.404c-2.721-3.38-4.438-4.938-6.213-5.579a5.88 5.88 0 1 1 3.974-11.069c4.42 1.587 7.413 4.32 11.445 9.335-.552-.688 2 2.51 2.546 3.169 1.117 1.334 1.94 2.145 2.586 2.574 1.2.806 3.451 1.152 6.76.823a26.833 26.833 0 0 1 1.188-6.437C28.72 82.623 18.843 71.371 18.843 49.291c0-7.29 2.175-13.85 6.22-19.352-1.282-5.256-1.088-11.61 1.774-18.764a5.88 5.88 0 0 1 3.704-3.422 7.624 7.624 0 0 1 1.223-.276c4.72-.723 11.387 1 20.075 6.443a68.962 68.962 0 0 1 15.796-1.81 69.02 69.02 0 0 1 15.778 1.81c8.682-5.485 15.36-7.207 20.116-6.443.5.076.923.176 1.281.294a5.878 5.878 0 0 1 3.622 3.41c2.863 7.148 3.057 13.502 1.775 18.752 4.062 5.502 6.22 12.022 6.22 19.358 0 22.086-9.841 33.302-27.288 37.576.734 2.44 1.116 5.167 1.116 8.112 0 5.322-.022 10.644-.07 15.966a5.877 5.877 0 0 1 4.625 5.801 5.879 5.879 0 0 1-4.737 5.71c-6.695 1.34-11.657-3.128-11.657-8.965l.012-2.622.029-4.144c.03-4.162.041-7.866.041-11.746 0-4.097-1.076-6.772-2.498-7.994-3.886-3.351-1.917-9.73 3.174-10.3 17.442-1.957 25.496-8.712 25.496-27.394 0-5.614-1.835-10.252-5.368-14.132a5.878 5.878 0 0 1-1.117-6.143c.977-2.434 1.394-5.626.565-9.488l-.059.018c-2.886.817-6.525 2.586-10.922 5.578a5.875 5.875 0 0 1-4.897.794 56.582 56.582 0 0 0-15.237-2.052c-5.232 0-10.417.7-15.238 2.058a5.877 5.877 0 0 1-4.879-.788c-4.42-2.98-8.077-4.744-10.98-5.567-.847 3.839-.43 7.02.54 9.447a5.878 5.878 0 0 1-1.111 6.143c-3.51 3.845-5.367 8.571-5.367 14.132 0 18.647 8.06 25.442 25.407 27.394 5.085.57 7.06 6.92 3.198 10.276-1.129.988-2.522 4.303-2.522 8.018v18.518c0 5.796-4.908 10.14-11.522 8.982a5.881 5.881 0 0 1-4.86-5.67 5.88 5.88 0 0 1 4.625-5.864v-5.819c-5.35.358-9.77-.518-13.25-2.851Z" fill="#000"/></svg>
